packages/kaspersky-hexa-ui-icons/src/iconsSVGs/24/Connect.svg

<svg width="24" height="24" viewBox="0 0 24 24" fill="none" xmlns="http://www.w3.org/2000/svg">
<path fill-rule="evenodd" clip-rule="evenodd" d="M10 3C10 2.44772 9.55228 2 9 2C8.44772 2 8 2.44772 8 3V5H7C5.34315 5 4 6.34315 4 8V12C4 15.3137 6.68629 18 10 18H11V21C11 21.5523 11.4477 22 12 22C12.5523 22 13 21.5523 13 21V18H14C17.3137 18 20 15.3137 20 12V8C20 6.34315 18.6569 5 17 5H16V3C16 2.44772 15.5523 2 15 2C14.4477 2 14 2.44772 14 3V5H10V3ZM7 7C6.44772 7 6 7.44772 6 8V12C6 14.2091 7.79086 16 10 16H14C16.2091 16 18 14.2091 18 12V8C18 7.44772 17.5523 7 17 7H7Z" fill="black"/>
</svg>

<svg xmlns="http://www.w3.org/2000/svg" width="24" height="24" fill="none" viewBox="0 0 24 24"><path fill="#000" fill-rule="evenodd" d="M10 3c0-.5523-.4477-1-1-1s-1 .4477-1 1v2H7C5.3431 5 4 6.3431 4 8v4c0 3.3137 2.6863 6 6 6h1v3c0 .5523.4477 1 1 1s1-.4477 1-1v-3h1c3.3137 0 6-2.6863 6-6V8c0-1.6569-1.3431-3-3-3h-1V3c0-.5523-.4477-1-1-1s-1 .4477-1 1v2h-4zM7 7c-.5523 0-1 .4477-1 1v4c0 2.2091 1.7909 4 4 4h4c2.2091 0 4-1.7909 4-4V8c0-.5523-.4477-1-1-1z"/></svg>
